X:1
T:Deus in nomine tuo
T:Ivo de Vento
T:Source : Liber mottetorum 4 vocum---Monachij---A.Berg--1571. Editor: André Vierendeels (26/01/14) /
T:Deus in nomine tuo
C:Ivo de Vento
%%score [ 1 [ 2 3 ] 4 ]
L:1/8
Q:1/4=120
M:2/2
K:F
V:1 treble nm="Superius" snm="S"
V:2 treble-8 nm="Tenor 1" snm="T 1"
V:3 treble-8 nm="Tenor 2" snm="T 2"
V:4 bass nm="Bassus" snm="B"
V:1
 z8 | z8 | z8 | z8 | z8 | z4 c4 | c4 f4 | e3 d c2 B2 | A2 A4 G2 | A2 GF AG c2- | cA d3 c c2- | %11
w: |||||De-|us, in|no- mi- ne tu-|o sal- vum|me _ _ _ _ _|_ _ _ _ _|
 cB/A/ B2 c2 A2- | A2 A2 d4 | c3 B A2 G2 | A2 d2 G2 c2- | cA B2 c4 | z8 | z8 | z8 | z4 F4 | %20
w: * * * * fac, De-|* us, in|no- mi- ne tu-|o sal- vum me|_ _ _ fac,||||et|
 G2 A2 B2 c2 | FG AF G4 | A4 z4 | d4 c2 B2 | A2 c2 BA d2- | dc/B/ c2 d4 | z8 | z2 f3 e/d/ e2 | %28
w: in vir- tu- te|tu- * * * *|a,|et in vir-|tu- te tu- * *|* * * * a,||li- * * *|
 c2 d3 c c2- |"^-natural""^-natural" cB/A/ B2 c4 | z8 | z8 | z2 B2 B2 B2 | A4 G2 G2 | %34
w: be- ra _ _|_ _ _ _ me.|||De- us, ex-|au- di o-|
 B2 B2 A3 G/F/ | G4 D2 d2- | dc c3 B/A/ B2 | c2 c2 c2 c2 | B4 A4 | z8 | c4 c2 c2 | B4 A2 A2- | %42
w: ra- ti- o- * *|* nem me-||am, De- us, ex-|au- di,||De- us, ex-|au- di o-|
 A2 d4 B2 | c4 =B4 | c3 B AF G2- | GF F3 E/D/ E2 | F4 z4 | A3 B c2 d2- | d2 B2 A4 | z8 | z4 c4 | %51
w: * ra- ti-|o- nem|me- * * * *||am|au- ri- bus per-|* ci- pe||ver-|
 A4 c4 | F2 f3 e/d/ e2 | f4 z4 | z8 | c4 A2 A2 | d2 d3 c c2- | cB/A/ B2 c2 c2- | c2 A2 d3 c | %59
w: ba o-|ris me- * * *|i,||ver- ba o-|ris me- * *|* * * * i, ver-|* ba o- *|
 B2 A2 G4 | A4 A4 | A2 B3 B G2- | GF F3 E/D/ E2 | F8- | F8- | F8 |] %66
w: * ris me-|i, ver-|ba o- ris me-||i.|_||
V:2
 f4 f4 | b4 a3 g | f2 e2 d2 f2- | fe a4 g2 | a2 d2 z2 c2 | f2 d2 f3 g | a6 f2 | g2 g2 a2 d2 | %8
w: De- us,|in no- mi-|ne tu- o sal-|* * * vum|me fac, De-|us, in no- *|* mi-|ne tu- o sal-|
 f2 FG AB c2- | cB/A/ B2 c2 g2 | e2 f3 e dc | d4 c4 | z8 | c4 c4 | f4 e3 d | c2 B2 A2 f2 | %16
w: vum me _ _ _ _|_ _ _ _ fac, sal-|vum me _ _ _|_ fac,||De- us,|in no- mi-|ne tu- o sal-|
 e2 d3 c c2- | cB/A/ B2 c4 | z8 | z2 c4 d2 | e2 f2 g2 a2- | ag f3 e/d/ e2 | f4 z4 | z8 | %24
w: vum me _ _|_ _ _ _ fac,||et in|vir- tu- te tu-||a,||
 z2 a2 g2 f2 | e4 d2 g2- | gf/e/ f2 g4 | z4 g3 f | e2 d2 g4- | g4 e4- | e4 z4 | z8 | z4 z2 f2 | %33
w: a in vir-|tu- te tu-|* * * * a|li- *|* be- ra|_ me,|_||De-|
 f2 f2 e4 | d2 g4 f2- | f2 e2 f3 g | e2 c2 d4 | c4 z2 c2 | d2 B2 c4 | A2 a2 f2 g2 | a3 g fe a2 | %41
w: us, ex- au-|di o- ra-|* ti- o- *|* nem me-|am, De-|us, ex- au-|di o- ra- ti-|o- * * * *|
 d2 g2 c4 | f4 d2 d2 | c4 d2 d2 | f2 e2 f2 c2 | c4 c2 c2- | c2 c2 c2 d2- | d2 B2 c4 | z4 d3 e | %49
w: nem me- am,|De- us, ex-|au- di o-|ra- ti- o- nem|me- am au-|* ri- bus per-|* ci- pe,|au- ri-|
 f2 c4 d2 | f4 z2 c2- | c2 A2 a4- | a2 f2 g4 | a8 | z8 | z4 z2 f2- | f2 d2 f2 e2 | d4 g4 | %58
w: bus per- ci-|pe ver-|* ba o-|* ris me-|i,||ver-|* ba o- ris|me- i,|
 z2 f4 d2- | d2 f3 f e2 | f2 c4 A2 | d3 e f2 e2 | d2 cB c4 | c4 d3 d | B2 c2 d4 | c8 |] %66
w: ver- ba|_ o- ris me-|i, ver- ba|o- * * ris|me- * * *|i, ver- ba|o- ris me-|i.|
V:3
 z8 | z8 | z8 | c4 c4 | f4 e3 d | c2 B2 A2 a2 | f2 e2 d4 | z8 | c4 c4 | f4 e3 d | c2 B2 A4 | %11
w: |||De- us,|in no- mi-|ne tu- o sal-|vum me fac,||De- us,|in no- mi-|ne tu- o|
 G4 A2 c2- | cF f4 ed | f2 e2 z4 | z8 | z8 | z8 | z2 F2 G2 A2 | B2 c2 d3 c/B/ | c4 A4 | z8 | %21
w: sal- vum me-||* fac,||||et in vir-|tu- te tu- * *|* a,||
 z4 z2 c2- | c2 d2 e2 f2- | f2 d2 e4 | f4 z2 F2 | G2 A2 B4 | A4 G2 c2- | cB/A/ B2 c4 | g3 f e2 e2 | %29
w: et|_ in vir- tu-|* te tu-|o, et|in vir- tu-|* te tu-|* * * * a|li- * * be-|
 d4 c4 | z2 g2 g2 g2 | f4 e2 c2 | d2 d2 _e2 d2 | c2 c2 z4 | z2 d2 d2 d2 | c4 B2 B2 | c2 A2 G2 G2 | %37
w: ra me,|De- us, ex-|au- di o-|ra- ti- o- nem|me- am,|De- us, ex-|au- di o-|ra- ti- o- nem|
 AB cd ec f2- | fe/d/ e2 f2 c2 | c2 c2 B4 | A2 c4 f2- | f2 e2 f4 | d2 de fd g2- | gf/e/ f2 g4 | %44
w: me- * * * * * *|* * * * am, De-|us, ex- au-|di o- ra-|* ti- o-|nem me- * * * *|* * * * am,|
 c4 c3 B | A2 A2 G4 | A4 z4 | d3 e f2 f2- | f2 B2 f4 | z4 f3 e | d2 c4 e2 | f2 c4 A2 | d2 d2 c4 | %53
w: o- ra ti-|o- nem me-|am,|au- ri- bus per-|* ci- pe,|au- ri-|bus per- ci-|pe ver- ba|o- ris me-|
 c2 c2 f2 f2- | f2 d2 g3 f | e4 f4 | z4 z2 c2 | f2 f4 e2 | a4 f4 | z4 z2 c2- | c2 A2 c3 F | %61
w: i, ver- ba o-|* ris me- *|* i,|ver-|ba o- ris|me- i,|ver-|* ba o- *|
 f3 e d2 c2 | BA GF G4 | A2 A4 B2 | d2 c2 B4 | A8 |] %66
w: * * * ris|me- * * * *|i, ver- ba|o- ris me-|i.|
V:4
 z8 | z4 F,4 | F,4 B,4 | A,3 G, F,2 E,2 | D,2 B,2 G,2 A,2- | A,F, G,2 F,2 F,2- | F,G, A,2 D,2 D2 | %7
w: |De-|us, in|no- mi- ne tu-|o sal- vum me-|* * * fac, De-|* * * us, in|
 C3 B, A,2 G,2 | F,2 F,4 E,2 | D,4 C,4 | z8 | z4 F,4 | F,4 B,4 | A,3 G, F,2 E,2 | D,4 z2 A,2- | %15
w: no- mi- ne tu-|o sal- vum|me fac,||De-|us, in|no- mi- ne tu-|o sal-|
 A,2 G,2 F,G, A,F, | G,3 F, E,2 D,C, | D,4 C,2 C,2 | D,2 E,2 F,2 G,2 | A,4 F,4 | z8 | z8 | %22
w: * vum me- * * *||* fac, et|in vir- tu- te|tu- a,|||
 F,4 G,2 A,2 | B,4 A,2 G,2 | F,4 z4 | z4 z2 B,,2 | C,2 D,2 _E,2 E,2 | D,4 C,2 C2- | C2 =B,2 C4 | %29
w: et in vir-|tu- te tu-|a,|et|in vir- tu- te|tu- a li-|* be- ra|
 G,4 z2 C2 | C2 C2 B,4 | A,2 F,2 G,2 A,2 | B,3 A, G,2 B,2 | F,G, A,B, C4 | G,4 z4 | z8 | z8 | %37
w: me, De-|us, ex- au-|di o- ra- ti-|o- * * nem|me- * * * *|am,|||
 z2 A,2 A,2 A,2 | G,4 F,4 | F,4 D,2 E,2 | F,3 G, A,2 F,2 | G,4 F,4 | z2 B,2 B,2 B,2 | A,4 G,2 G,2 | %44
w: De- us, ex-|au- di|o- ra- ti-|o- * * nem|me- am,|De- us, ex-|au- di o-|
 A,3 G, F,2 E,2 | F,4 C,4 | F,3 G, A,2 B,2- | B,2 G,2 F,4 | z8 | F,3 G, A,2 B,2- | %50
w: ra- ti- o- nem|me- am,|au- ri- bus per|_ ci- pe,||au- ri- bus per-|
 B,2 A,G, A,2 A,2 | F,8 | z8 | F,4 D,4 | B,4 G,2 C2- | C2 B,A, D3 C | B,4 A,4 | z4 C4 | %58
w: * * * * ci-|pe||ver- ba|o- ris me-||* i,|ver-|
 A,2 D3 C B,A, | G,2 F,2 C4 | F,4 F,4 | D,2 B,,4 C,2 | D,4 C,4 | F,4 D,2 B,,2- | B,,2 A,,2 B,,4 | %65
w: ba o- * * *|* ris me-|i, ver-|ba o- ris|me- i,|ver- ba o-|* ris me-|
 F,8 |] %66
w: i.|

